X: 5
T: Matt Peoples'
R: reel
M: 4/4
L: 1/8
K: Ador
|: ~A2 eA BAeA | ~B2 gd BAGB | ~A2 eA BAeA | BAGB A2 Ae :|[| aeea agef | gB ~B2 g2 fg | aeea aged | BAGA BAAe || aeea agef | gB ~B2 g2 fg | afge fded | BAGA BAAe|]


Tune 691	Setting 27937

